X:205
T:Jayne's Jig
C:Jon Freeman
L:1/8
M:6/8
O:England
O:Wales
Q:1/4=190
R:Jig
Z:Jon Freeman <jonbanjo@freeuk.com>
%%Copyright: Jon Freeman
%%TUNEURL: http://www.leeds.ac.uk/music/Info/RRTuneBk/gettune/0000063a.html
%%ID:0000063a
K:D
dAF FGA|BdB AFD|BGB AFA|EFG ABc|
dAF DEF|GAB AFD|GAB AFD|1 GEC D2c :|2 GEC DAc |:
dAf ece|dcB AFD|GAB AFD|GFE EFA|
dAf ece|dcB AFD|GAB AFD|1 GEC DFA :|2 GEC DEF |:
GFE EFG|AGF FGA|BGB AFA|GFE EFG|
GFE EFG|AGF FGA|BdB AFA|1 GEC DEF :|2 GEC DFA|:
dfd cec|BdB Adf|bag fed|efe ecA|
dfd cec|BdB Adf|bag fed|1 eBc dBc :|2 eBc d2A|]
